<?xml version="1.0" encoding="UTF-8"?>
<map version="1.10" tiledversion="1.12.1" orientation="orthogonal" renderorder="right-down" width="30" height="20" tilewidth="16" tileheight="16" infinite="0" nextlayerid="11" nextobjectid="14">
 <tileset firstgid="1" source="TX Tileset Grass.tsx"/>
 <tileset firstgid="257" source="TX Tileset Wall.tsx"/>
 <tileset firstgid="1281" source="TX Struct.tsx"/>
 <tileset firstgid="2305" source="TX Plant.tsx"/>
 <tileset firstgid="3329" source="Atlas.tsx"/>
 <layer id="1" name="grass" width="30" height="20">
  <data encoding="csv">
0,39,72,72,72,72,72,72,72,72,39,39,39,39,39,39,39,39,39,39,39,39,39,39,39,39,39,39,39,0,
0,39,39,39,39,39,39,39,39,72,72,72,72,72,72,39,39,39,39,39,39,39,39,39,39,39,39,39,39,0,
0,71,71,71,71,71,71,71,71,71,71,71,71,71,71,71,71,39,39,39,39,39,39,39,39,39,39,39,71,0,
0,71,71,71,71,71,71,71,71,71,71,71,71,71,71,71,71,71,71,71,71,71,71,71,71,71,71,71,71,0,
0,71,71,71,71,71,71,71,71,71,71,71,71,71,71,19,71,71,71,71,71,71,71,71,71,71,71,71,71,0,
0,20,20,20,20,20,20,20,20,20,19,19,19,19,19,19,19,19,19,20,20,20,20,20,20,20,20,20,20,0,
0,20,20,20,20,20,20,20,20,20,20,0,20,20,0,0,20,20,20,20,20,20,20,20,20,20,20,20,20,0,
0,20,20,20,20,20,20,20,20,20,20,0,20,20,20,20,20,20,20,20,20,20,20,20,20,20,20,20,20,0,
0,20,20,20,20,20,20,20,20,20,20,0,20,20,154,20,20,20,20,20,20,20,20,20,20,20,20,20,20,0,
0,114,114,20,20,20,20,20,20,20,20,0,0,0,0,0,20,20,20,20,20,20,20,20,20,20,20,20,20,0,
0,20,20,20,20,20,117,20,20,20,20,20,20,20,20,20,20,20,20,20,20,20,20,20,20,20,20,20,20,0,
0,20,20,20,20,20,20,20,20,20,20,33,20,20,20,20,20,20,20,20,20,20,20,20,20,20,20,20,20,0,
0,20,20,117,20,20,20,20,20,20,20,20,20,20,20,20,20,20,20,20,20,20,20,20,20,20,20,20,20,0,
0,20,20,20,20,20,20,20,20,20,20,20,20,20,20,20,20,20,20,20,20,20,20,20,20,20,20,20,20,0,
0,20,20,20,20,0,20,20,20,20,20,20,20,20,20,20,20,20,20,20,20,20,20,20,20,20,20,20,20,0,
0,20,20,20,20,20,20,20,20,20,20,20,20,20,20,20,20,20,0,20,20,20,20,20,20,20,20,20,20,0,
0,20,20,20,20,20,20,20,20,20,20,20,20,20,20,20,20,20,20,20,20,20,20,20,20,20,20,20,20,0,
0,0,0,0,0,0,0,0,0,0,0,0,0,0,0,0,0,0,0,0,0,0,0,0,0,0,0,0,0,0,
0,0,0,0,0,0,0,0,0,0,0,0,0,0,0,0,0,0,0,0,0,0,0,0,0,0,0,0,0,0,
0,0,0,0,0,0,0,0,0,0,0,0,0,0,0,0,0,0,0,0,0,0,0,0,0,0,0,0,0,0
</data>
 </layer>
 <layer id="3" name="road" width="30" height="20">
  <data encoding="csv">
0,0,0,0,0,0,0,0,0,0,0,0,0,0,0,0,0,0,0,0,0,0,0,0,0,0,0,0,0,0,
0,0,0,0,0,0,0,0,0,0,0,0,0,0,0,0,0,0,0,0,0,0,0,0,0,0,0,0,0,0,
0,0,0,0,0,0,0,0,0,0,0,0,0,0,0,0,0,0,0,0,0,0,0,0,0,0,0,0,0,0,
0,0,0,0,0,0,0,0,0,0,0,0,0,0,0,0,0,0,0,0,0,0,0,0,0,0,0,0,0,0,
0,0,0,0,0,0,0,0,0,0,0,0,0,0,0,0,0,0,0,0,0,0,0,0,0,0,0,0,0,0,
0,0,0,0,0,0,0,0,0,0,0,0,0,0,0,0,0,0,0,0,0,0,0,0,0,0,0,0,0,0,
0,0,0,0,0,0,0,0,0,0,0,0,0,0,0,0,0,0,0,0,0,0,0,0,0,0,0,0,0,0,
0,0,0,167,0,0,0,134,167,0,0,0,0,0,0,0,0,0,0,0,0,0,0,0,0,0,0,0,0,0,
0,0,159,157,0,230,170,170,157,158,155,221,150,150,154,154,150,150,150,150,150,150,150,251,156,179,227,241,0,0,
0,0,0,0,0,234,170,170,173,159,150,150,150,150,150,249,150,150,150,150,150,150,150,251,0,0,0,0,0,0,
0,0,0,0,0,162,163,0,0,0,0,0,0,0,0,0,0,0,0,0,0,0,235,235,0,0,0,0,0,0,
0,0,0,0,0,147,147,0,0,0,0,0,0,0,0,0,0,0,0,0,0,250,250,251,252,159,0,0,0,0,
0,0,0,0,0,230,162,0,0,0,0,0,0,0,0,0,0,0,0,0,0,0,0,0,159,0,0,0,0,0,
0,0,0,0,0,131,148,0,0,0,0,0,0,0,0,0,0,0,0,0,0,0,0,0,251,0,0,0,0,0,
0,0,0,0,0,134,134,0,0,0,0,0,0,0,0,0,0,0,0,0,0,0,0,0,251,0,0,0,0,0,
0,0,0,0,0,134,134,0,0,0,0,0,0,0,0,0,0,0,0,0,0,0,0,0,251,0,0,0,0,0,
0,0,0,0,0,166,247,0,0,0,0,0,0,0,0,0,0,0,0,0,0,0,0,0,251,0,0,0,0,0,
0,0,0,0,0,0,0,0,0,0,0,0,0,0,0,0,0,0,0,0,0,0,0,0,0,0,0,0,0,0,
0,0,0,0,0,0,0,0,0,0,0,0,0,0,0,0,0,0,0,0,0,0,0,0,0,0,0,0,0,0,
0,0,0,0,0,0,0,0,0,0,0,0,0,0,0,0,0,0,0,0,0,0,0,0,0,0,0,0,0,0
</data>
 </layer>
 <objectgroup id="9" name="ShadyLender">
  <object id="12" name="ShadyLneder" x="246.5" y="195.5" width="44" height="45.5"/>
 </objectgroup>
 <objectgroup id="10" name="spawn_from_farm">
  <object id="13" name="to_farm" x="65" y="279" width="64" height="52">
   <properties>
    <property name="targetMap" type="file" value="level1.tmx"/>
   </properties>
  </object>
 </objectgroup>
 <layer id="2" name="wall" width="30" height="20">
  <data encoding="csv">
394,0,0,0,0,0,0,0,0,0,0,0,0,0,0,0,0,0,0,0,0,0,0,0,0,0,0,0,0,369,
394,0,0,0,0,0,0,0,0,0,0,0,0,0,0,0,0,0,0,0,0,0,0,0,0,0,0,0,0,369,
394,0,0,0,0,0,0,0,0,0,0,0,0,0,0,0,0,0,0,0,0,0,0,0,0,0,0,0,0,369,
362,0,0,0,0,0,0,0,0,0,0,0,0,0,0,0,0,0,0,0,0,0,0,0,0,0,0,0,0,371,
362,0,0,0,0,0,0,0,0,0,0,0,0,0,0,0,0,0,0,0,0,0,0,0,0,0,0,0,0,369,
362,0,0,0,0,0,0,0,0,0,0,0,0,0,0,0,0,0,0,0,0,0,0,0,0,0,0,0,0,369,
490,0,0,0,0,0,0,0,0,0,0,53,0,0,53,53,0,0,0,0,0,0,0,0,0,0,0,0,0,369,
490,0,0,41,0,0,0,0,0,41,0,53,0,0,0,53,0,0,0,0,0,0,0,41,0,0,29,0,0,369,
490,0,0,0,154,0,0,0,0,0,0,154,0,0,154,154,0,0,0,0,0,0,0,0,0,0,0,0,0,369,
490,0,0,0,0,0,0,0,0,0,0,53,53,53,53,53,0,0,0,0,0,0,0,0,0,0,0,0,0,369,
490,0,0,0,0,0,0,0,0,0,0,0,0,0,0,0,0,0,0,0,0,0,0,0,0,0,0,0,0,369,
490,0,0,0,0,0,0,0,0,0,0,0,0,0,0,0,0,0,0,0,0,0,0,0,0,0,0,0,0,369,
490,0,0,0,0,0,0,0,0,0,0,0,0,0,0,0,0,0,0,0,0,0,0,0,0,106,0,0,0,369,
490,0,0,0,0,0,0,0,0,0,0,0,0,0,0,0,0,0,0,0,0,0,0,0,0,0,0,0,0,369,
490,0,0,0,0,0,0,0,0,0,0,0,0,0,0,0,0,0,0,0,0,0,0,0,0,0,0,0,0,369,
394,0,0,0,0,0,0,0,0,0,0,0,0,0,0,0,0,0,6,0,0,0,0,0,0,0,0,108,0,497,
394,0,0,0,0,0,0,0,0,0,0,0,123,0,0,0,0,0,0,0,0,0,0,0,0,0,0,0,0,497,
522,523,523,523,1347,1348,1349,1350,346,346,346,346,346,346,346,346,346,346,346,346,346,346,346,346,346,346,346,346,346,529,
0,0,0,0,1379,1380,1381,1382,0,0,0,0,0,0,0,0,0,0,0,0,0,0,0,0,0,0,0,0,0,0,
0,0,0,0,1411,1412,1413,1414,0,0,0,0,0,0,0,0,0,0,0,0,0,0,0,0,0,0,0,0,0,0
</data>
 </layer>
 <layer id="5" name="plant" width="30" height="20">
  <data encoding="csv">
0,0,0,0,0,0,0,0,0,0,0,0,0,0,0,0,0,0,0,0,0,0,0,0,0,0,0,0,0,0,
0,0,0,0,0,0,0,0,0,0,0,0,0,0,0,0,0,0,0,0,0,0,0,0,0,0,0,0,0,0,
0,0,0,0,0,0,0,0,0,0,0,0,0,0,0,0,0,0,0,0,0,0,0,0,0,0,0,0,0,0,
0,0,0,0,0,0,0,0,0,0,0,0,0,0,0,0,0,0,0,0,0,0,0,0,0,0,0,0,0,0,
0,0,0,0,0,0,0,0,0,0,0,0,0,0,0,0,0,0,0,0,0,0,0,0,0,0,0,0,0,0,
0,0,0,0,0,0,0,0,0,0,0,0,0,0,0,0,0,0,0,0,0,0,0,0,0,0,0,0,0,0,
0,0,0,0,0,0,0,0,0,0,0,0,0,0,0,0,0,0,0,0,0,0,0,0,0,0,0,0,0,0,
0,0,0,0,0,0,0,0,0,0,0,0,0,0,0,0,0,0,0,0,0,0,0,0,0,0,0,0,0,0,
0,0,0,0,0,0,0,0,0,0,0,0,0,0,0,0,0,0,0,0,0,0,0,0,0,0,0,0,0,0,
0,0,0,0,0,0,0,0,0,0,0,2389,2390,0,0,0,0,0,0,0,0,0,0,0,0,0,0,0,0,0,
0,0,0,0,0,0,0,0,0,0,2420,2421,2422,2423,0,0,0,0,0,0,0,0,0,0,0,0,0,0,0,0,
0,0,0,0,0,0,0,0,0,2451,2452,2453,2454,2455,2456,0,0,0,0,0,0,0,0,0,0,0,0,0,0,0,
0,0,0,0,0,0,0,0,0,2483,2484,2485,2486,2487,2488,0,0,0,0,0,0,0,0,0,0,0,0,0,0,0,
0,0,0,0,0,0,0,0,0,2515,2516,2517,2518,2519,2520,0,0,0,0,0,0,0,0,0,0,0,0,0,0,0,
0,0,0,0,0,0,0,0,0,0,2548,2549,2550,2551,0,0,0,0,2667,2668,0,0,0,0,0,0,0,0,0,0,
0,0,0,0,0,0,0,0,0,2691,2692,2581,2582,2691,2692,0,0,2698,2699,2700,0,0,2691,2692,0,0,0,0,0,0,
0,0,0,0,0,0,0,0,0,2723,2724,2613,2614,2723,2724,0,0,2730,2731,2732,2733,0,2723,2724,0,0,0,0,0,0,
0,0,0,0,0,0,0,0,0,0,0,0,0,0,0,0,0,0,0,0,0,0,0,0,0,0,0,0,0,0,
0,0,0,0,0,0,0,0,0,0,0,0,0,0,0,0,0,0,0,0,0,0,0,0,0,0,0,0,0,0,
0,0,0,0,0,0,0,0,0,0,0,0,0,0,0,0,0,0,0,0,0,0,0,0,0,0,0,0,0,0
</data>
 </layer>
 <objectgroup id="4" name="bank">
  <object id="7" name="bank" x="85.5" y="27" width="90" height="84.5"/>
 </objectgroup>
 <objectgroup id="8" name="merchant">
  <object id="8" name="merchant" x="204.5" y="26" width="175.5" height="89"/>
 </objectgroup>
</map>
