<?xml version="1.0" encoding="UTF-8"?>
<map version="1.10" tiledversion="1.12.1" orientation="orthogonal" renderorder="right-down" width="30" height="20" tilewidth="16" tileheight="16" infinite="0" nextlayerid="6" nextobjectid="5">
 <tileset firstgid="1" name="Grass" tilewidth="16" tileheight="16" tilecount="77" columns="11">
  <image source="../images/Grass.png" width="176" height="112"/>
 </tileset>
 <tileset firstgid="78" name="Hills" tilewidth="16" tileheight="16" tilecount="99" columns="11">
  <image source="../images/Hills.png" width="176" height="144"/>
 </tileset>
 <tileset firstgid="177" name="Basic Grass Biom things 1" tilewidth="16" tileheight="16" tilecount="45" columns="9">
  <image source="../images/Basic Grass Biom things 1.png" width="144" height="80"/>
 </tileset>
 <layer id="1" name="Grass" width="30" height="20">
  <data encoding="csv">
13,13,13,13,13,13,13,13,13,13,13,13,13,13,13,13,13,13,13,13,13,13,13,13,13,13,13,13,13,13,
13,13,13,13,13,13,13,13,13,13,13,13,13,13,13,13,13,13,13,13,13,13,13,13,13,13,13,13,13,13,
13,13,13,13,13,13,13,13,13,13,13,13,13,13,13,13,13,13,13,13,13,13,13,13,13,13,13,13,13,13,
13,13,13,13,13,13,13,13,13,13,13,13,13,13,13,13,13,13,13,13,13,13,13,13,13,13,13,13,13,13,
13,13,13,13,13,13,13,13,13,13,13,13,13,13,13,13,13,13,13,13,13,13,13,13,13,13,13,13,13,13,
13,13,13,13,13,13,13,13,13,13,13,13,13,13,13,13,13,13,13,13,13,13,13,13,13,13,13,13,13,13,
13,13,13,13,13,13,13,13,13,13,13,13,13,13,13,13,13,13,13,13,13,13,13,13,13,13,13,13,13,13,
13,13,13,13,13,13,13,13,13,13,13,13,13,13,13,13,13,13,13,13,13,13,13,13,13,13,13,13,13,13,
13,13,13,13,13,13,13,13,13,13,13,13,13,13,13,13,13,13,13,13,13,13,13,13,13,13,13,13,13,13,
13,13,13,13,13,13,13,13,13,13,13,13,13,13,13,13,13,13,13,13,13,13,13,13,13,13,13,13,13,13,
13,13,13,13,13,13,13,13,13,13,13,13,13,13,13,13,13,13,13,13,13,13,13,13,13,13,13,13,13,13,
13,13,13,13,13,13,13,13,13,13,13,13,13,13,13,13,13,13,13,13,13,13,13,13,13,13,13,13,13,13,
13,13,13,13,13,13,13,13,13,13,13,13,13,13,13,13,13,13,13,13,13,13,13,13,13,13,13,13,13,13,
13,13,13,13,13,13,13,13,13,13,13,13,13,13,13,13,13,13,13,13,13,13,13,13,13,13,13,13,13,13,
13,13,13,13,13,13,13,13,13,13,13,13,13,13,13,13,13,13,13,13,13,13,13,13,13,13,13,13,13,13,
13,13,13,13,13,13,13,13,13,13,13,13,13,13,13,13,13,13,13,13,13,13,13,13,13,13,13,13,13,13,
13,13,13,13,13,13,13,13,13,13,13,13,13,13,13,13,13,13,13,13,13,13,13,13,13,13,13,13,13,13,
13,13,13,13,13,13,13,13,13,13,13,13,13,13,13,13,13,13,13,13,13,13,13,13,13,13,13,13,13,13,
13,13,13,13,13,13,13,13,13,13,13,13,13,13,13,13,13,13,13,13,13,13,13,13,13,13,13,13,13,13,
13,13,13,13,13,13,13,13,13,13,13,13,13,13,13,13,13,13,13,13,13,13,13,13,13,13,13,13,13,13
</data>
 </layer>
 <layer id="2" name="Hills" width="30" height="20">
  <data encoding="csv">
78,79,79,79,79,79,79,79,79,79,79,79,79,79,79,0,0,0,0,0,0,0,0,0,0,0,0,0,0,0,
89,0,0,0,0,0,0,0,0,0,0,0,0,0,0,0,0,0,0,0,0,0,0,0,0,0,0,0,0,0,
101,101,101,101,101,101,101,101,101,101,101,101,101,101,101,102,0,0,0,0,0,0,0,0,0,0,0,0,0,0,
0,0,0,0,0,0,0,0,0,0,0,0,0,0,0,0,0,0,0,0,0,0,0,0,0,0,0,0,0,0,
0,0,0,0,0,0,0,0,0,0,0,0,0,0,0,0,0,0,0,0,0,0,0,0,0,0,0,0,0,0,
0,0,0,0,0,0,0,0,0,0,0,0,0,0,0,0,0,0,0,0,0,0,0,0,0,0,0,0,0,0,
0,0,0,0,0,0,0,0,0,0,0,0,0,0,0,0,0,0,0,0,0,0,0,0,0,0,0,0,0,0,
0,0,0,0,0,0,0,0,0,0,0,0,0,0,0,0,0,0,0,0,0,0,0,0,0,0,0,0,0,0,
0,0,0,0,0,0,0,0,0,0,0,0,0,0,0,0,0,0,0,0,0,0,0,0,0,0,0,0,0,0,
0,0,0,0,0,0,0,0,0,0,0,0,0,0,0,0,0,0,0,0,0,0,0,0,0,0,0,0,0,0,
0,0,0,0,0,0,0,0,0,0,0,0,0,0,0,0,0,0,0,0,0,0,0,0,0,0,0,0,0,0,
0,0,0,0,0,0,0,0,0,0,0,0,0,0,0,0,0,0,0,0,0,0,0,0,0,0,0,0,0,0,
0,0,0,0,0,0,0,0,0,0,0,0,0,0,0,0,0,0,0,0,0,0,0,0,0,0,0,0,0,0,
0,0,0,0,0,0,0,0,0,0,0,0,0,0,0,0,0,0,0,0,0,0,0,0,0,0,0,0,0,0,
0,0,0,0,0,0,0,0,0,0,0,0,0,0,0,0,0,0,0,0,0,0,0,0,78,0,0,0,0,0,
0,0,0,0,0,0,0,0,0,0,0,0,0,0,0,0,0,0,0,0,0,0,0,0,89,0,0,0,0,0,
0,0,0,0,0,0,0,0,0,0,89,0,0,0,0,91,0,0,0,0,0,0,0,0,89,0,0,0,0,0,
0,0,0,0,0,0,0,0,0,0,89,0,0,0,0,91,0,0,0,0,0,0,0,0,89,0,0,0,0,0,
0,0,0,0,0,0,0,0,0,0,89,0,0,0,0,91,0,0,0,0,0,0,0,0,89,0,0,0,0,0,
0,0,0,0,0,0,0,0,0,0,100,101,101,101,101,102,0,0,0,0,0,0,0,0,100,116,116,116,116,116
</data>
 </layer>
 <layer id="3" name="Foreground" width="30" height="20">
  <data encoding="csv">
178,179,0,0,177,0,0,0,0,0,177,0,0,177,0,0,0,0,0,0,0,0,0,0,0,177,0,0,0,0,
187,188,0,182,186,0,204,0,182,0,186,0,0,186,0,0,0,0,194,0,177,0,0,194,0,186,0,0,177,0,
0,0,204,0,0,0,0,0,0,0,0,0,0,0,0,0,194,0,0,0,186,194,194,0,177,0,0,0,186,0,
0,182,0,0,0,180,181,0,204,0,0,0,0,0,177,0,0,0,0,194,177,0,0,0,186,0,177,0,177,0,
0,180,181,204,182,189,190,0,0,0,0,177,0,0,186,177,0,194,0,0,186,0,180,181,194,0,186,0,186,0,
194,189,190,0,0,182,0,0,182,182,177,186,182,204,0,186,0,0,0,0,0,0,189,190,0,180,181,180,181,0,
0,0,0,0,182,0,182,180,181,0,186,177,0,0,0,204,0,0,204,0,0,0,0,180,181,189,190,189,190,0,
180,181,182,182,0,194,182,189,190,0,0,186,0,0,182,0,180,181,0,0,0,194,0,189,190,180,181,0,0,0,
189,190,0,0,0,0,0,0,0,182,0,0,204,0,0,204,189,190,0,0,0,194,0,0,0,189,190,0,194,0,
0,0,0,0,0,194,0,0,0,0,0,194,0,0,0,0,0,0,0,0,0,0,0,0,0,0,0,0,0,0,
0,0,0,0,0,0,0,0,0,0,0,0,0,0,0,0,0,0,0,0,0,0,0,0,0,0,0,0,180,181,
180,181,204,180,181,0,204,0,0,0,0,0,0,0,0,0,0,0,0,0,0,204,0,0,0,0,0,0,189,190,
189,190,0,189,190,180,181,0,204,0,194,0,0,0,0,0,0,0,0,0,0,0,0,0,194,0,0,0,0,0,
0,0,0,0,0,189,190,0,0,0,0,0,0,0,0,185,0,0,0,194,0,0,194,0,0,0,0,0,0,0,
0,180,181,204,204,0,0,0,177,0,0,0,185,0,0,0,0,0,204,0,0,0,178,179,0,0,0,0,180,181,
0,189,190,0,0,0,204,0,186,0,0,0,0,0,185,0,0,204,0,0,204,0,187,188,0,0,194,0,189,190,
194,0,0,0,177,0,0,0,204,0,0,185,185,0,0,0,0,0,185,185,0,0,178,179,0,0,0,0,0,0,
0,0,194,0,186,0,0,177,0,0,0,185,0,180,181,0,180,181,0,0,204,0,187,188,178,179,0,194,0,0,
178,179,0,194,0,0,194,186,0,204,0,0,185,189,190,0,189,190,185,185,0,0,178,179,187,188,0,0,0,0,
187,188,0,0,204,0,0,0,0,204,0,0,0,0,0,0,0,0,0,0,0,0,187,188,0,0,0,0,0,0
</data>
 </layer>
 <objectgroup id="4" name="Exits">
  <object id="1" name="exit" x="-1" y="142.333" width="15.3333" height="32.3333"/>
 </objectgroup>
 <objectgroup id="5" name="NPCs">
  <object id="2" name="oracle" x="272.333" y="31.6667" width="16" height="15.6667"/>
  <object id="3" name="trader" x="400" y="256" width="15.3333" height="16"/>
 </objectgroup>
</map>
