<?xml version="1.0" encoding="UTF-8"?>
<map version="1.10" tiledversion="1.12.1" orientation="orthogonal" renderorder="right-down" width="20" height="15" tilewidth="16" tileheight="16" infinite="0" nextlayerid="3" nextobjectid="5">
 <tileset firstgid="1" name="Folding &amp; Cutout Paper UI SpriteSheet" tilewidth="16" tileheight="16" tilecount="75240" columns="285">
  <image source="../images/UI Book/SpriteSheet/Folding &amp; Cutout Paper UI SpriteSheet.png" width="4560" height="4224"/>
 </tileset>
 <layer id="1" name="Floor" width="20" height="15">
  <data encoding="csv">
51878,51878,51878,51878,51878,51878,51878,51878,51878,51878,51878,51878,51878,51878,51878,51878,51878,51878,51878,51878,
51878,51878,51878,51878,51878,51878,51878,51878,51878,51878,51878,51878,51878,51878,51878,51878,51878,51878,51878,51878,
51878,51878,51878,51878,51878,51878,51878,51878,51878,51878,51878,51878,51878,51878,51878,51878,51878,51878,51878,51878,
51878,51878,51878,51878,51878,51878,51878,51878,51878,51878,51878,51878,51878,51878,51878,51878,51878,51878,51878,51878,
51878,51878,51878,51878,51878,51878,51878,51878,51878,51878,51878,51878,51878,51878,51878,51878,51878,51878,51878,51878,
51878,51878,51878,51878,51878,51878,51878,51878,51878,51878,51878,51878,51878,51878,51878,51878,51878,51878,51878,51878,
51878,51878,51878,51878,51878,51878,51878,51878,51878,51878,51878,51878,51878,51878,51878,51878,51878,51878,51878,51878,
51878,51878,51878,51878,51878,51878,51878,51878,51878,51878,51878,51878,51878,51878,51878,51878,51878,51878,51878,51878,
51878,51878,51878,51878,51878,51878,51878,51878,51878,51878,51878,51878,51878,51878,51878,51878,51878,51878,51878,51878,
51878,51878,51878,51878,51878,51878,51878,51878,51878,51878,51878,51878,51878,51878,51878,51878,51878,51878,51878,51878,
51878,51878,51878,51878,51878,51878,51878,51878,51878,51878,51878,51878,51878,51878,51878,51878,51878,51878,51878,51878,
51878,51878,51878,51878,51878,51878,51878,51878,51878,51878,51878,51878,51878,51878,51878,51878,51878,51878,51878,51878,
51878,51878,51878,51878,51878,51878,51878,51878,51878,51878,51878,51878,51878,51878,51878,51878,51878,51878,51878,51878,
51878,51878,51878,51878,51878,51878,51878,51878,51878,51878,51878,51878,51878,51878,51878,51878,51878,51878,51878,51878,
51878,51878,51878,51878,51878,51878,51878,51878,51878,51878,51878,51878,51878,51878,51878,51878,51878,51878,51878,51878
</data>
 </layer>
 <objectgroup id="2" name="Exits">
  <object id="4" name="Door" x="110" y="224" width="51.5" height="14.5"/>
 </objectgroup>
</map>
